X:1
T:Title
%%score { ( 1 3 ) | ( 2 4 ) }
L:1/8
Q:1/4=108
M:3/4
K:F
V:1 treble nm="Grand Piano"
V:3 treble 
V:2 bass 
V:4 bass 
V:1
 c2 B2 A2 | [EG]4 [EB]2 | B2 z2 z2 | A4 c2 | c2 d2 c2 | F4 [DFB]2 | [CEG]6- |[M:2/4] [CEG]4 | %8
w: S.~M.~Bixby * *||||||||
[M:1/4] [Ec]2 |[M:3/4] c2 B2 [CFA]2 | [CEG]4 [C^FA]2 | B2 z2 z2 | G2 z2 z2 | [DF]2 z2 z2 | A4 z2 | %15
w: |||||||
 [A,F]6- | [A,F]6 |] %17
w: ||
V:2
 [F,A,F]2 [F,DF]2 [F,CF]2 | [C,C]4 [C,C]2 | z2 A2 C,2 | [F,CF]4 [F,A,F]2 | %4
 [F,F]2- [F,B,F]2 [F,A,F]2 | [D,A,]4 G,,2 | C,6- |[M:2/4] C,4 |[M:1/4] [C,B,]2 | %9
[M:3/4] [F,F]2- [F,DF]2 F,2 | C,2 B,2 A,2 | z2[K:treble] c2[K:bass] [F,B,]2 | E,2 D,2 C,2 | %13
 D,2 C,2 B,,2 | [F,C]2 z2 z2 | F,6- | F,6 |] %17
V:3
 x6 | x6 | E4 [CE_A]2 | x6 | x6 | x6 | x6 |[M:2/4] x4 |[M:1/4] x2 |[M:3/4] x6 | x6 | [DG]4 [Gd]2 | %12
 [B,c]2- [B,Fc-]2 [B,Ec]2 | A,2- [A,_EF]2 [B,DF]2 | z2 F2 [B,EG]2 | x6 | x6 |] %17
V:4
 x6 | x6 | [C,C]4 z2 | x6 | A,2 z2 z2 | x6 | x6 |[M:2/4] x4 |[M:1/4] x2 |[M:3/4] A,2 z2 z2 | x6 | %11
 G,4[K:treble][K:bass] z2 | x6 | x6 | C,2- [C,A,]2 C,2 | x6 | x6 |] %17

